material/.icons/material/chevron-up-circle-outline.svg

<svg xmlns="http://www.w3.org/2000/svg" viewBox="0 0 24 24"><path d="M22 12a10 10 0 01-10 10A10 10 0 012 12 10 10 0 0112 2a10 10 0 0110 10m-2 0a8 8 0 00-8-8 8 8 0 00-8 8 8 8 0 008 8 8 8 0 008-8M7.4 15.4l4.6-4.6 4.6 4.6L18 14l-6-6-6 6 1.4 1.4z"/></svg>

<?xml version="1.0" encoding="UTF-8"?><!DOCTYPE svg PUBLIC "-//W3C//DTD SVG 1.1//EN" "http://www.w3.org/Graphics/SVG/1.1/DTD/svg11.dtd"><svg xmlns="http://www.w3.org/2000/svg" xmlns:xlink="http://www.w3.org/1999/xlink" version="1.1" id="mdi-chevron-up-circle-outline" width="24" height="24" viewBox="0 0 24 24"><path d="M22,12A10,10 0 0,1 12,22A10,10 0 0,1 2,12A10,10 0 0,1 12,2A10,10 0 0,1 22,12M20,12A8,8 0 0,0 12,4A8,8 0 0,0 4,12A8,8 0 0,0 12,20A8,8 0 0,0 20,12M7.4,15.4L12,10.8L16.6,15.4L18,14L12,8L6,14L7.4,15.4Z" /></svg>
